src/assets/icons/days,simple,wednesday.svg

<svg width="48" height="48" viewBox="0 0 48 48" fill="none" xmlns="http://www.w3.org/2000/svg">
<rect opacity="0.2" x="5" y="5" width="38" height="38" rx="4" fill="black"/>
<path d="M5 13C5 9.22876 5 7.34315 6.17157 6.17157C7.34315 5 9.22876 5 13 5H35C38.7712 5 40.6569 5 41.8284 6.17157C43 7.34315 43 9.22876 43 13V15H5V13Z" fill="black"/>
<path d="M12.7864 36H15.7836L18.5463 26.4901H18.66L21.4299 36H24.427L28.589 21.4545H25.2296L22.8219 31.5824H22.6941L20.0449 21.4545H17.1685L14.5123 31.5611H14.3915L11.9838 21.4545H8.62447L12.7864 36ZM33.9778 36.2131C36.6767 36.2131 38.4949 34.8991 38.921 32.875L36.1227 32.6903C35.8173 33.5213 35.036 33.9545 34.0275 33.9545C32.5147 33.9545 31.5559 32.9531 31.5559 31.3267V31.3196H38.9849V30.4886C38.9849 26.7812 36.7406 24.9489 33.8571 24.9489C30.6468 24.9489 28.5659 27.2287 28.5659 30.5952C28.5659 34.054 30.6184 36.2131 33.9778 36.2131ZM31.5559 29.4446C31.6199 28.2017 32.5645 27.2074 33.9068 27.2074C35.2207 27.2074 36.1298 28.1449 36.1369 29.4446H31.5559Z" fill="black"/>
</svg>

<svg xmlns="http://www.w3.org/2000/svg" width="48" height="48" fill="none" viewBox="0 0 48 48">
  <rect width="38" height="38" x="5" y="5" fill="#000" opacity=".2" rx="4"/>
  <path fill="#000" d="M5 13c0-3.771 0-5.657 1.172-6.828C7.343 5 9.229 5 13 5h22c3.771 0 5.657 0 6.828 1.172C43 7.343 43 9.229 43 13v2H5v-2zM12.786 36h2.998l2.762-9.51h.114L21.43 36h2.997l4.162-14.546h-3.36l-2.407 10.128h-.128l-2.65-10.128H17.17l-2.657 10.107h-.12l-2.408-10.107h-3.36L12.786 36zm21.192.213c2.699 0 4.517-1.314 4.943-3.338l-2.798-.185c-.306.831-1.087 1.265-2.095 1.265-1.513 0-2.472-1.002-2.472-2.628v-.007h7.429v-.831c0-3.708-2.244-5.54-5.128-5.54-3.21 0-5.291 2.28-5.291 5.646 0 3.459 2.052 5.618 5.412 5.618zm-2.422-6.768c.064-1.243 1.009-2.238 2.35-2.238 1.315 0 2.224.938 2.23 2.238h-4.58z"/>
</svg>
